X: 131008
T: The HUNDRED PIPERS
Q: "Scotch Jig."
R: Jig.
%R: jig
B: James Kerr "Merry Melodies" v.1 p.31 s.0 #8
Z: 2016 John Chambers <jc:trillian.mit.edu>
M: 6/8
L: 1/8
K: A
AB |\
vc2vE EFE | vF2vA uA2uf | ve2vc cBA | c2B BAB |\
c2E EFE | F2A A2f | e2c BAB | A2A A :|
|: cd |\
ve2ve ece | vf2va ua2uf | ve2vc cBA | c2B Bcd |\
e2e efg | a2a agf | e2c BAB | A2A A :|

%%sep 1 1 500
%%sep 1 1 500

